svgs/adaway.svg

<svg width="192" height="192" viewBox="0 0 192 192" fill="none" xmlns="http://www.w3.org/2000/svg">
<path fill-rule="evenodd" clip-rule="evenodd" d="M17.4346 40.9763C14.9372 36.285 15.7557 30.5177 19.4596 26.7065C23.1405 22.9191 28.8337 21.925 33.5767 24.2313L33.6203 24.2515C33.7078 24.2915 33.8999 24.3779 34.2029 24.5058C34.8092 24.7617 35.8593 25.1838 37.404 25.7342C40.4944 26.8353 45.5599 28.4483 53.006 30.271L53.0358 30.2783C58.194 31.5546 63.1897 32.5218 68.523 33.5543C71.1487 34.0626 73.8564 34.5868 76.7054 35.1715C92.9706 38.4508 98.9336 41.0562 105.299 43.9509L105.305 43.9538C108.185 45.2654 110.864 46.479 115.154 47.914L115.155 47.9145C118.417 49.0063 120.277 49.4416 121.372 49.5826L121.432 49.5901C121.511 49.5183 121.603 49.4339 121.707 49.3349C122.71 48.3771 123.912 46.9927 126.075 44.4674L126.111 44.4263C128.759 41.3607 132.627 37.5453 138.024 35.4971C144.026 33.2191 150.268 33.7156 156.204 36.3836C161.339 38.6859 165.607 42.1731 168.309 44.6563C169.732 45.9648 170.892 47.1545 171.71 48.0332C172.122 48.4751 172.454 48.8454 172.697 49.1215C172.818 49.2597 172.917 49.3749 172.993 49.4641C173.01 49.4827 173.025 49.5001 173.038 49.5164C173.059 49.5393 173.076 49.5601 173.091 49.5785L173.127 49.6207L173.15 49.6491C173.15 49.6491 173.151 49.6495 173.131 49.6664C173.115 49.6803 173.085 49.7053 173.032 49.7505L173.034 49.7521L173.153 49.6525C176.171 53.2619 176.85 58.282 174.9 62.5634C173.043 66.6413 169.116 69.3603 164.683 69.6908C164.614 69.7089 164.503 69.7423 164.363 69.7994C163.964 69.9612 163.094 70.3946 162.174 71.7525C161.082 73.3622 159.291 77.1999 159.291 85.4356C159.291 98.1643 157.013 107.789 152.143 115.67C147.634 122.964 141.452 127.698 136.593 131.419L136.589 131.423L136.055 131.832C128.511 137.622 124.92 141.413 123.654 146.729C123.094 149.128 123.007 151.375 123.075 153.03C123.107 153.843 123.176 154.466 123.224 154.831C123.235 154.909 123.244 154.975 123.252 155.027C123.261 155.093 123.269 155.138 123.273 155.16C124.003 158.868 122.978 162.709 120.49 165.561C117.973 168.446 114.25 169.986 110.431 169.722C106.162 169.428 97.7787 168.77 90.9614 164.672C88.299 163.108 86.3359 161.145 84.8962 159.125C82.8429 158.576 80.9147 157.793 79.1907 156.988C71.6739 153.674 64.9782 151.391 58.0097 150.671C53.1733 150.172 49.0924 146.853 47.6157 142.221C46.139 137.589 47.547 132.521 51.202 129.314L51.2033 129.313L51.2048 129.312C51.616 128.952 52.0321 128.598 52.4495 128.246C53.2084 127.606 54.2943 126.704 55.6492 125.614C58.3512 123.441 62.163 120.493 66.615 117.383L66.6221 117.378C70.1228 114.936 74.105 112.33 78.3165 109.907C75.5583 109.256 72.6979 108.425 69.7997 107.365C62.3276 104.639 56.3857 99.6722 51.8381 94.7963C47.2647 89.8926 43.5249 84.4482 40.6324 79.9446C38.6593 76.9257 36.9629 74.0691 35.6772 71.6591C34.7241 69.8767 33.7595 67.9075 33.1579 66.1866C32.9965 65.7249 32.7713 65.029 32.5952 64.2093L32.5876 64.1737C32.4825 63.6886 32.0293 61.597 32.511 59.0544C32.5706 58.7398 32.6571 58.3509 32.7853 57.909C27.7859 54.4267 24.1011 50.4086 21.668 47.3031C20.3626 45.6368 19.3635 44.1637 18.6669 43.0638C18.2337 42.3798 17.8324 41.6804 17.4346 40.9763ZM80.9437 144.436C81.2786 144.575 81.6132 144.715 81.9477 144.857C82.3078 145.01 82.6675 145.164 83.0272 145.32C83.3344 145.452 83.6416 145.586 83.9486 145.721C84.0076 145.747 84.0667 145.773 84.1257 145.799L84.257 145.857C92.0477 149.527 93.0045 146.616 93.1184 145.721C93.0728 146.865 93.1184 151.792 97.2074 154.158C97.6781 154.445 98.1714 154.706 98.6826 154.944C99.1499 155.162 99.6321 155.362 100.126 155.543C100.403 155.645 100.683 155.742 100.966 155.834C104.299 156.913 108.056 157.3 111.274 157.522C111.274 157.522 110.149 152.121 111.464 145.274C111.55 144.828 111.645 144.377 111.752 143.92C114.089 134.067 120.95 128.008 128.609 122.13C139.021 114.145 147.061 107.974 147.061 85.4356C147.061 75.4351 149.248 69.0249 152.05 64.8911C152.324 64.4877 152.603 64.1062 152.887 63.7456C157.529 57.8414 163.327 57.5125 163.746 57.4963V57.4671C163.368 57.0208 158.577 51.4453 152.698 48.2818C152.204 48.0162 151.703 47.7676 151.196 47.5405C144.374 44.471 139.74 47.3567 135.364 52.4218L135.355 52.4318C127.264 61.8802 125.279 64.1987 111.274 59.5115C106.365 57.8693 103.221 56.4424 100.237 55.0833C94.6332 52.535 89.5533 50.2359 74.2679 47.1555C73.3887 46.9749 72.5091 46.7978 71.6292 46.623C69.9462 46.2885 68.2625 45.9623 66.5791 45.6361L66.5666 45.6336C65.8811 45.5008 65.1956 45.3679 64.5103 45.2346L64.5076 45.234C61.3183 44.6134 58.1321 43.981 54.9576 43.2819L54.9328 43.2764C53.3179 42.9206 51.7061 42.5474 50.0983 42.1495C48.3972 41.7331 46.8075 41.3255 45.3249 40.9295L45.315 40.9269C33.1755 37.6841 28.2296 35.2297 28.2296 35.2297C28.2296 35.2297 32.3413 42.9537 40.4168 48.3106C40.9363 48.656 41.4651 48.981 42.002 49.2882C43.8194 50.3284 45.7296 51.1663 47.683 51.911L47.7067 51.92C48.9622 52.398 50.2355 52.8377 51.5133 53.2678L51.5904 53.2938C53.3714 53.8881 54.9544 54.3644 56.3446 54.7464C56.4263 54.7688 56.5072 54.7908 56.5875 54.8126C61.7081 56.2011 64.1308 56.2838 64.1308 56.2838C63.456 56.5988 62.7752 56.9152 62.0884 57.2231C60.7258 57.834 59.3402 58.4115 57.9346 58.8773C57.5685 59.0182 57.1946 59.1598 56.8152 59.3007L56.7 59.3434L56.5738 59.3899C53.944 60.3582 51.0844 61.2747 48.7984 61.662L48.7747 61.666C46.9965 61.9648 45.5683 61.9411 44.8703 61.3689C44.5411 61.098 44.4507 61.2465 44.573 61.7315C44.6972 62.2231 45.0397 63.0608 45.5744 64.1606C45.8288 64.6839 46.1266 65.2664 46.4649 65.8991C47.4049 67.6614 48.6565 69.8004 50.1471 72.1362C50.3904 72.5174 50.64 72.9038 50.8957 73.2947C50.9754 73.4188 51.0555 73.5433 51.1361 73.6682C56.6483 82.2105 64.1684 92.2947 73.9946 95.8777C79.7237 97.9728 85.3731 99.0262 90.2253 99.5244C90.7586 99.5793 91.2824 99.6274 91.7958 99.6694C99.4409 100.294 104.782 99.5585 104.782 99.5585C104.782 99.5585 104.055 105.759 97.2722 112.148C96.8019 112.591 96.3025 113.034 95.7723 113.478C93.7904 115.131 91.3871 116.773 88.4599 118.291C83.2205 121.009 78.0836 124.293 73.6187 127.408C73.1027 127.769 72.5956 128.126 72.0983 128.482C64.5507 133.871 59.2673 138.507 59.2673 138.507C64.5453 139.052 69.5488 140.294 74.4343 141.963C76.6231 142.71 78.7882 143.542 80.9437 144.436Z" fill="black"/>
</svg>

<svg width="192" height="192" fill="none" xmlns="http://www.w3.org/2000/svg"><path fill-rule="evenodd" clip-rule="evenodd" d="M17.435 40.976a12.23 12.23 0 0 1 16.142-16.745l.043.02c.088.04.28.127.583.255.606.256 1.656.678 3.201 1.228 3.09 1.101 8.156 2.714 15.602 4.537l.03.007c5.158 1.277 10.154 2.244 15.487 3.276 2.626.509 5.333 1.033 8.182 1.617 16.266 3.28 22.229 5.885 28.594 8.78l.006.003c2.88 1.311 5.559 2.525 9.849 3.96h.001c3.262 1.092 5.122 1.528 6.217 1.669l.06.007c.079-.072.171-.156.275-.255 1.003-.958 2.205-2.342 4.368-4.868l.036-.04c2.648-3.066 6.516-6.882 11.913-8.93 6.002-2.278 12.244-1.781 18.18.887 5.135 2.302 9.403 5.79 12.105 8.272a62.326 62.326 0 0 1 3.401 3.377 51.375 51.375 0 0 1 1.283 1.431l.045.052c.021.023.038.044.053.063l.036.042.023.028-.019.017-.099.085.002.001.119-.1a12.228 12.228 0 0 1-8.47 20.038c-.069.019-.18.052-.32.11-.399.161-1.269.595-2.189 1.953-1.092 1.61-2.883 5.447-2.883 13.683 0 12.728-2.278 22.353-7.148 30.234-4.509 7.294-10.691 12.028-15.55 15.749l-.004.004-.534.409c-7.544 5.79-11.135 9.581-12.401 14.897a23.84 23.84 0 0 0-.579 6.301c.032.813.101 1.436.149 1.801l.028.196c.009.066.017.111.021.133a12.229 12.229 0 0 1-12.842 14.562c-4.269-.294-12.652-.952-19.47-5.05a19.547 19.547 0 0 1-6.065-5.547c-2.053-.549-3.981-1.332-5.705-2.137-7.517-3.314-14.213-5.597-21.181-6.317a12.228 12.228 0 0 1-6.808-21.357l.001-.001.002-.001c.411-.36.827-.714 1.245-1.066.758-.64 1.844-1.542 3.2-2.632a205.742 205.742 0 0 1 10.965-8.231l.007-.005c3.5-2.442 7.483-5.048 11.695-7.471a74.867 74.867 0 0 1-8.517-2.542c-7.472-2.726-13.414-7.693-17.962-12.569-4.573-4.903-8.313-10.348-11.206-14.851-1.973-3.02-3.67-5.876-4.955-8.286-.953-1.782-1.917-3.752-2.52-5.472a16.546 16.546 0 0 1-.562-1.978l-.007-.035c-.105-.485-.559-2.577-.077-5.12.06-.314.146-.703.274-1.145-5-3.482-8.684-7.5-11.117-10.606a52.314 52.314 0 0 1-3.001-4.24 48.13 48.13 0 0 1-1.232-2.087Zm63.509 103.46a135.244 135.244 0 0 1 2.083.884c.307.132.615.266.922.401l.177.078.131.058c7.79 3.67 8.747.759 8.861-.136-.045 1.144 0 6.071 4.09 8.437.47.287.963.548 1.475.786.467.218.95.418 1.443.599.277.102.557.199.84.291 3.333 1.079 7.09 1.466 10.308 1.688 0 0-1.125-5.401.19-12.248.086-.446.181-.897.288-1.354 2.337-9.853 9.198-15.912 16.857-21.79 10.412-7.985 18.452-14.156 18.452-36.694 0-10 2.187-16.411 4.989-20.545.274-.403.553-.785.837-1.145 4.642-5.905 10.44-6.233 10.859-6.25v-.029c-.378-.446-5.169-6.022-11.048-9.185a23.226 23.226 0 0 0-1.502-.741c-6.822-3.07-11.456-.184-15.832 4.88l-.009.01c-8.091 9.45-10.076 11.768-24.081 7.08-4.909-1.642-8.053-3.069-11.037-4.428-5.604-2.548-10.684-4.847-25.97-7.927-.878-.181-1.758-.358-2.638-.533-1.683-.334-3.367-.66-5.05-.987l-.012-.002-2.057-.4h-.002c-3.19-.62-6.376-1.253-9.55-1.952l-.025-.006a235.365 235.365 0 0 1-9.608-2.347l-.01-.002C33.175 37.684 28.23 35.23 28.23 35.23s4.111 7.724 12.187 13.08c.52.346 1.048.671 1.585.978 1.817 1.04 3.728 1.878 5.681 2.623l.024.009c1.255.478 2.529.918 3.806 1.348l.077.026a92.338 92.338 0 0 0 4.997 1.519c5.121 1.388 7.544 1.47 7.544 1.47-.675.316-1.356.632-2.043.94-1.362.611-2.748 1.188-4.153 1.654-.367.141-.74.283-1.12.424l-.115.042-.126.047c-2.63.968-5.49 1.885-7.776 2.272l-.023.004c-1.779.299-3.207.275-3.905-.297-.329-.271-.42-.123-.297.362.124.492.467 1.33 1.001 2.43.255.523.553 1.105.89 1.738.94 1.762 2.193 3.901 3.683 6.237.243.381.493.768.749 1.159l.24.373c5.512 8.542 13.032 18.627 22.859 22.21 5.729 2.095 11.378 3.148 16.23 3.646.534.055 1.057.103 1.57.145 7.646.625 12.987-.11 12.987-.11s-.727 6.2-7.51 12.589c-.47.443-.97.886-1.5 1.33-1.982 1.653-4.385 3.295-7.312 4.813-5.24 2.718-10.376 6.002-14.841 9.117-.516.361-1.023.718-1.52 1.074-7.548 5.389-12.832 10.025-12.832 10.025 5.278.545 10.282 1.787 15.167 3.456 2.19.747 4.354 1.579 6.51 2.473Z" fill="#000"/></svg>
